X: 9959
T: Devil In The Straw Stack, The
R: reel
M: 4/4
K: Gminor
|:"Gm"GFDF GFDF|GFD2 "F"C4|"Gm"GFDF G2 d2-|"Dm"dcAc dcAc|
"Gm"GFDF GFDF|GFD2 "F"C4|"Gm"GFDF G2 d2-|"Dm"dcA2 "Gm"G4:|
|:"Gm"d2g2g4|gagf d4|"F"fAgA fAgf|"Dm"dcA2 d4|
"Gm"d2g2g4|gagf d4|"F"fAgA fAgf|"Dm"dcA2 "Gm"G4:|

